img/Bake.svg

<svg width="42" height="42" viewBox="0 0 42 42" fill="none" xmlns="http://www.w3.org/2000/svg">
<path d="M21 1C9.97188 1 1 9.97212 1 21C1 32.0279 9.97188 41 21 41C32.0279 41 41 32.0279 41 21C41 9.97212 32.0279 1 21 1ZM21 37.3636C11.977 37.3636 4.63636 30.023 4.63636 21C4.63636 11.977 11.977 4.63636 21 4.63636C30.023 4.63636 37.3636 11.977 37.3636 21C37.3636 30.023 30.023 37.3636 21 37.3636Z" fill="#FF7010" stroke="white" stroke-width="2"/>
<path d="M17.5723 26.7548C17.0184 25.9172 15.8904 25.6876 15.0528 26.2411C14.2153 26.7948 13.9852 27.923 14.5391 28.7606L15.0405 29.5189C15.5925 30.354 16.7195 30.588 17.56 30.0326C18.3976 29.4789 18.6276 28.3506 18.0737 27.5131L17.5723 26.7548Z" fill="#FF7010" stroke="white"/>
<path d="M14.8094 16.0961L15.2587 15.3058C15.7549 14.4326 15.4494 13.3228 14.5762 12.8265C13.7033 12.3305 12.5934 12.636 12.0972 13.5087L11.648 14.299C11.1517 15.1722 11.4572 16.2821 12.3304 16.7783C13.2087 17.2777 14.3163 16.9633 14.8094 16.0961Z" fill="#FF7010" stroke="white"/>
<path d="M27.3065 28.217L26.4051 28.0984C25.4097 27.9666 24.4961 28.6681 24.3654 29.6638C24.2342 30.6592 24.9353 31.5726 25.9307 31.7035L26.832 31.8221C26.9125 31.8328 26.9925 31.8378 27.0716 31.8378C27.97 31.8378 28.7516 31.1717 28.8718 30.2568C29.003 29.2614 28.3019 28.3479 27.3065 28.217Z" fill="#FF7010" stroke="white"/>
<path d="M29.5253 14.0837C29.2601 13.1154 28.2613 12.5447 27.2916 12.8102C26.3231 13.0754 25.7529 14.0754 26.0181 15.0439L26.2581 15.9207C26.5214 16.8824 27.5171 17.4611 28.4918 17.1942C29.4603 16.929 30.0305 15.929 29.7653 14.9605L29.5253 14.0837Z" fill="#FF7010" stroke="white"/>
<path d="M22.3014 18.288C21.6059 17.5636 20.4549 17.5401 19.7308 18.2359C19.0064 18.9311 18.9831 20.0822 19.6786 20.8065L20.3085 21.4623C21.0047 22.1876 22.1562 22.209 22.8791 21.5144C23.6035 20.8191 23.6268 19.6681 22.9313 18.9437L22.3014 18.288Z" fill="#FF7010" stroke="white"/>
</svg>

<svg width="42" height="42" fill="none" xmlns="http://www.w3.org/2000/svg"><path d="M21 1C9.972 1 1 9.972 1 21s8.972 20 20 20 20-8.972 20-20S32.028 1 21 1Zm0 36.364c-9.023 0-16.364-7.341-16.364-16.364S11.977 4.636 21 4.636 37.364 11.977 37.364 21 30.023 37.364 21 37.364Z" fill="#FF7010" stroke="#fff" stroke-width="2"/><path d="M17.572 26.755a1.819 1.819 0 0 0-3.033 2.006l.502.758a1.818 1.818 0 0 0 3.033-2.006l-.502-.758ZM14.81 16.096l.449-.79a1.818 1.818 0 0 0-3.162-1.797l-.449.79a1.818 1.818 0 1 0 3.161 1.797ZM27.306 28.217l-.9-.119a1.817 1.817 0 1 0-.475 3.605l.901.12a1.817 1.817 0 1 0 .474-3.606ZM29.525 14.084a1.817 1.817 0 1 0-3.507.96l.24.877a1.818 1.818 0 0 0 3.507-.96l-.24-.877ZM22.301 18.288a1.818 1.818 0 1 0-2.622 2.518l.63.656a1.818 1.818 0 1 0 2.622-2.518l-.63-.656Z" fill="#FF7010" stroke="#fff"/></svg>
